X: 36261
T: Seals In The Town
R: polka
M: 2/4
K: Eminor
GA|:BG ED/E/|FD FA|BG ED/E/|F2 GA|
BG ED/E/|FD FA|GF D/E/F|1 E2 GA:|2 E2 E2||
|:ee dB|cA B2|GF E/F/G|BA G2|
ee dB|cA B2|GF D/E/F|1 E2 E2:|2 E2 GA||

